Adwaita++-Dark/actions/16/go-jump-definition.svg

<svg height="16" viewBox="0 0 16 16" width="16" xmlns="http://www.w3.org/2000/svg">
  <path d="m5 2.0292969-4 1 5 1 4-1zm8 0-1 1-1 1 2 2v-1.2851563c.624413.943125 1 2.0637813 1 3.2851563 0 3.3240001-2.676 5.0000001-6 5.0000001v1c3.878025 0 7-2.12205 7-6.0000001 0-1.909125-.767675-3.6238625-2-4.8828125zm-12 2v5l4 1.0000001v-5.0000001zm9 0-4 1v5.0000001l4-1.0000001z" fill="#e6ddff"/>
</svg>

<svg xmlns="http://www.w3.org/2000/svg" width="16" height="16" viewBox="0 0 16 16">
 <defs>
  <style id="current-color-scheme" type="text/css">
   .ColorScheme-Text { color:#E6DDFF; } .ColorScheme-Highlight { color:#4285f4; }
  </style>
 </defs>
 <path style="fill:currentColor" class="ColorScheme-Text" d="M 5 2.0292969 L 1 3.0292969 L 6 4.0292969 L 10 3.0292969 L 5 2.0292969 z M 13 2.0292969 L 12 3.0292969 L 11 4.0292969 L 13 6.0292969 L 13 4.7441406 C 13.624413 5.6872656 14 6.8079219 14 8.0292969 C 14 11.353297 11.324 13.029297 8 13.029297 L 8 14.029297 C 11.878025 14.029297 15 11.907247 15 8.0292969 C 15 6.1201719 14.232325 4.4054344 13 3.1464844 L 13 2.0292969 z M 1 4.0292969 L 1 9.0292969 L 5 10.029297 L 5 5.0292969 L 1 4.0292969 z M 10 4.0292969 L 6 5.0292969 L 6 10.029297 L 10 9.0292969 L 10 4.0292969 z"/>
</svg>
